X:1408
T:Scale Navigation Strikes Scale
O:Kevin Fraser
Z:Kevin Fraser
Q:1/4=120
K:HP
M:4/4
L:1/4
R:March
V:gstem=up stem=down
%%MIDI gracedivider 4
%%MIDI gchord
%%MIDI beatstring
[| A {G}A B {G}B | c {G}c d {G}d | {c}d e {A}e f {e}f | g {f}g a {g}a | 
w:            -   |        G Strike on D|C Strike on D
w: EN emden O emdo|O  emdo A emda| ODA E  ENDE VE EVE | DI VEDI I LI 
  a {g}a  g {f}g | f {e}f e {A}e | d {G}d c {G}c | B {G}B A {G}A  | 
w:               |               |               | _    _ _ din
w: I li  di vedi | ve eve e ende | a emda o emdo | o emdo en emden
  d {G}A  c {G}A | B {G}A f {d}e | g {e}f a {e}f | a {f}g d {G}A  |]
w:               |               |               | EN VEDI A din
w: a emden o emden | o emden ve ade | di eve I eve | I vedi a emden

